X: 20901
M: 6/8
L: 1/8
K: F
V: 1 name="1"
c |\
{g}fef {g}fef | {g}fef {g}fef | b3 a3 | g[ec][ec] [e3c3] |\
g^fg gfg | g^fg gfg | c'3 b3 | gfe f2 H|]
c |\
f2f f2f | e2e e2e | e2e e2e | f2f f2z |\
f2f f2f | g2c c2c | d2d c2B | AcB "^D.C."A2 |]


